X: 306
T: NORAH THE PRIDE OF KILDARE
T: Nora an blath g-Cille-Dara
B: O'Neill's 306
M: 6/8
L: 1/8
Z: 1999 by John Chambers <jc@trillian.mit.edu>
N: "Slow"
N: "Collected by F.O'Neill"
K:D
A \
| d>cd BAz/F/ | d>cd BAz/F/ | GAB Ad>e | f>ed e2A |
| d>cd BA>F | d>cd {c}BA>F | GAB Ad(e/d/) | c>Bc | d2 ||
|| A \
| BGd AFd | (GFE) ({G}FD)>A | B>cd AHf(f/e/) | (dec) B2HA |
| f>ed edB | Ad(c/d/) e2Ha | f>ed edB | AHf((3e/d/c/) d2 ||


